shader_type sky;

uniform vec3 skyColour : source_color;
uniform vec3 horizonColour : source_color;

void sky() {
	// Called for every visible pixel in the sky background, as well as all pixels
	// in the radiance cubemap.

	float colour = clamp(EYEDIR.y / 0.05, 0.0, 1.0);

	vec3 mixedColour = mix(horizonColour, skyColour, colour);
	COLOR = mixedColour;
}
